icons/1_Primary/Meister.svg

<svg width="1024" height="1024" fill="none" xmlns="http://www.w3.org/2000/svg"><g clip-path="url(#a)"><path d="M512 1024c282.77 0 512-229.23 512-512S794.77 0 512 0 0 229.23 0 512s229.23 512 512 512Z" fill="#9ABEFF"/><path d="M423.37 367.17c-5.15.75-10.28 1.62-15.44 2.28a60168.052 60168.052 0 0 1 60.3-120.52 48.355 48.355 0 0 1 26.22-23.76 50.005 50.005 0 0 1 36.36.51 47.894 47.894 0 0 1 21.66 17.66 90.73 90.73 0 0 1 5.79 10.6c19.267 38.513 38.537 77.023 57.81 115.53-8-1.14-16-2.4-24-3.6a49.007 49.007 0 0 0-44.439 15.248 49.002 49.002 0 0 0-11.181 45.632c.57 2.39 1.6 4.64 2.22 7-8.9-17.727-17.79-35.467-26.67-53.22-8.51 16.9-16.93 33.86-25.44 50.76.13-2.28 1.05-4.39 1.5-6.61a49.003 49.003 0 0 0-44.17-59.36c-6.89-.62-13.73.9-20.52 1.85Zm19.48 12c-5-.45-9.88.65-14.77 1.33-3.71.54-7.4 1.17-11.12 1.64h-.13v.09c-2.32 5.26-5.1 10.31-7.62 15.49a35.26 35.26 0 0 0 28 51.93 3.068 3.068 0 0 1 1.71.61c3.2-.56 6.49-.62 9.65-1.44a35.26 35.26 0 0 0 20.19-13.49 53.129 53.129 0 0 0 4.86-8.66c.247-1.61.608-3.201 1.08-4.76a35.315 35.315 0 0 0-6.168-28.611A35.321 35.321 0 0 0 442.9 379.17h-.05Zm132.39 69.52c1.59.399 3.208.68 4.84.84 4.58.46 9.206.042 13.63-1.23a35.502 35.502 0 0 0 19-13.61 36.092 36.092 0 0 0 6-15.14 35.543 35.543 0 0 0-3.85-21.88c-2.51-5.18-5.29-10.24-7.62-15.51v-.08h-.16c-5.77-.82-11.53-1.73-17.3-2.59a35.306 35.306 0 0 0-40 43.84c.41 1.72 1.15 3.34 1.6 5.05a35.506 35.506 0 0 0 23 20.07l.86.24Zm215.11-20.82a49.174 49.174 0 0 0-22.56-31.71 50.423 50.423 0 0 0-19.58-6.64c-44-6.6-87.9-13.31-131.87-19.86 3.24 7.31 7.1 14.34 10.59 21.54a49.364 49.364 0 0 1 5.35 30.39 50.134 50.134 0 0 1-8.36 21 49.295 49.295 0 0 1-26.36 18.9 50.302 50.302 0 0 1-18.93 1.71c8.14.88 16.2 2.37 24.31 3.51l35.34 5.34c-12.8 12.66-25.66 25.26-38.45 37.94 2.47-.47 4.34-2.28 6.61-3.24a48.996 48.996 0 0 1 60.576 13.998A49.005 49.005 0 0 1 676.24 541c1.67 8.87 2.77 17.86 4.6 26.71 30.2-29.747 60.39-59.503 90.57-89.27 4.06-4.06 8.41-7.92 11.63-12.73a48.388 48.388 0 0 0 7.31-37.88v.04ZM421.08 526.7a19.138 19.138 0 0 1-1.6-1.37 35.274 35.274 0 0 0-50.778 1.752 35.28 35.28 0 0 0-8.362 16.708c-.93 5.22-1.74 10.46-2.62 15.68a16.435 16.435 0 0 0-.42 3.43c2.35 2.33 4.71 4.64 7.06 7 3.83 3.62 7.29 7.72 11.78 10.57a35.302 35.302 0 0 0 43.27-3.92 37 37 0 0 0 9.4-14.46c.12-.5.25-1 .37-1.51a35.375 35.375 0 0 0 .55-17.365 35.381 35.381 0 0 0-7.78-15.535c-.29-.36-.58-.68-.87-.98Zm189.12 54.1a35.442 35.442 0 0 0 33.27 2 38.245 38.245 0 0 0 11.79-8.67L666.53 563l.07-.07c-1.31-6.37-2.1-12.84-3.31-19.23a35.313 35.313 0 0 0-34.678-28.367A35.309 35.309 0 0 0 613 519c-1.63.69-3 2-4.76 2.34-2.81 2.76-5.89 5.31-8.15 8.57a35.293 35.293 0 0 0-.424 40.972A35.29 35.29 0 0 0 610.2 580.8Zm70.54-13-15.65 15.43a53.133 53.133 0 0 1-16.37 12 49.219 49.219 0 0 1-46.21-2.79 49.756 49.756 0 0 1-22.2-31c3.253 19.6 6.5 39.203 9.74 58.81a41090.13 41090.13 0 0 1-54.36-28.18c1.68 1.45 3.67 2.46 5.41 3.83a49.065 49.065 0 0 1 19.153 33.677A49.061 49.061 0 0 1 549 666.65a50.994 50.994 0 0 1-17.05 13c-6.69 3.5-13.43 6.89-20.08 10.46 40.173 20.853 80.357 41.69 120.55 62.51a48.34 48.34 0 0 0 41.58 1.2 50.06 50.06 0 0 0 24-22.45 48.449 48.449 0 0 0 4.8-30.37c-7.347-44.38-14.7-88.777-22.06-133.19v-.01ZM479.25 671.48a49.001 49.001 0 0 1 3.19-75.48c1.75-1.4 3.79-2.4 5.47-3.88-18.17 9.35-36.27 18.8-54.42 28.19 2.94-17.94 6-35.86 8.87-53.81a51.353 51.353 0 0 1-13.05 20.08 49 49 0 0 1-60.1 5.44c-6.24-3.95-11-9.65-16.36-14.67-3.26-3.23-6.54-6.44-9.8-9.67.028-1.606.226-3.205.59-4.77 1.23-7.26 2.35-14.53 3.64-21.78a49.002 49.002 0 0 1 82.14-25.63 26.537 26.537 0 0 0 2.22 1.91c-15.21-15.15-30.56-30.16-45.83-45.24 3.89-.87 7.87-1.24 11.8-1.91l40.76-6.15a4.257 4.257 0 0 0-2.37-.84 48.42 48.42 0 0 1-26.7-10.79 48.901 48.901 0 0 1-12.18-61.33c3.49-7.19 7.36-14.2 10.58-21.51-44.433 6.667-88.863 13.363-133.29 20.09a48.622 48.622 0 0 0-26 12.25 49.876 49.876 0 0 0-15.93 36.93 48 48 0 0 0 9.6 28.42c3 4 6.74 7.39 10.27 10.93 30.153 29.747 60.317 59.487 90.49 89.22-7.387 44.553-14.763 89.113-22.13 133.68a48.368 48.368 0 0 0 5.73 32 49.908 49.908 0 0 0 37.88 24.59 48.713 48.713 0 0 0 27.54-5.47c39.927-20.713 79.857-41.427 119.79-62.14-4.06-2.31-8.28-4.33-12.4-6.52-6.86-3.67-14.25-6.75-20-12.14Zm59.31-12.82a35.325 35.325 0 0 0 8.097-26.68 35.32 35.32 0 0 0-13.777-24.24c-1.25-1-2.68-1.72-3.89-2.76a35.854 35.854 0 0 0-34.39 0c-1.21 1.06-2.68 1.78-3.94 2.79a35.316 35.316 0 0 0-13.939 26.646 35.3 35.3 0 0 0 2.726 15.164 35.295 35.295 0 0 0 8.923 12.56c4.16 3.89 9.46 6.1 14.41 8.75 3 1.58 6 3 8.93 4.69h.12c4.78-2.57 9.64-5 14.46-7.53a36.735 36.735 0 0 0 12.27-9.39Z" fill="#fff"/></g><defs><clipPath id="a"><path fill="#fff" d="M0 0h1024v1024H0z"/></clipPath></defs></svg>

<svg width="1024" height="1024" viewBox="0 0 1024 1024" fill="none" xmlns="http://www.w3.org/2000/svg">
<g clip-path="url(#clip0_2_2793)">
<path d="M512 1024C794.77 1024 1024 794.77 1024 512C1024 229.23 794.77 0 512 0C229.23 0 0 229.23 0 512C0 794.77 229.23 1024 512 1024Z" fill="#9ABEFF"/>
<path d="M423.37 367.17C418.22 367.92 413.09 368.79 407.93 369.45C427.977 329.27 448.077 289.097 468.23 248.93C473.654 237.982 483.022 229.493 494.45 225.17C506.204 220.771 519.184 220.953 530.81 225.68C539.625 229.282 547.166 235.431 552.47 243.34C554.633 246.741 556.568 250.282 558.26 253.94C577.527 292.453 596.797 330.963 616.07 369.47C608.07 368.33 600.07 367.07 592.07 365.87C583.978 364.486 575.669 365.157 567.904 367.821C560.139 370.485 553.168 375.058 547.631 381.118C542.094 387.179 538.169 394.533 536.215 402.507C534.261 410.48 534.342 418.816 536.45 426.75C537.02 429.14 538.05 431.39 538.67 433.75C529.77 416.023 520.88 398.283 512 380.53C503.49 397.43 495.07 414.39 486.56 431.29C486.69 429.01 487.61 426.9 488.06 424.68C489.563 417.828 489.577 410.734 488.102 403.876C486.627 397.018 483.697 390.557 479.509 384.929C475.322 379.302 469.974 374.639 463.829 371.256C457.684 367.873 450.885 365.849 443.89 365.32C437 364.7 430.16 366.22 423.37 367.17ZM442.85 379.17C437.85 378.72 432.97 379.82 428.08 380.5C424.37 381.04 420.68 381.67 416.96 382.14H416.83V382.23C414.51 387.49 411.73 392.54 409.21 397.72C406.421 402.867 404.958 408.628 404.952 414.482C404.946 420.336 406.397 426.099 409.176 431.252C411.954 436.405 415.971 440.785 420.866 443.997C425.76 447.209 431.377 449.152 437.21 449.65C437.828 449.676 438.425 449.889 438.92 450.26C442.12 449.7 445.41 449.64 448.57 448.82C456.685 446.856 463.839 442.075 468.76 435.33C470.647 432.601 472.274 429.702 473.62 426.67C473.867 425.06 474.228 423.469 474.7 421.91C475.777 416.977 475.784 411.871 474.72 406.935C473.656 402 471.546 397.35 468.532 393.299C465.518 389.249 461.67 385.891 457.249 383.454C452.827 381.017 447.934 379.556 442.9 379.17H442.85ZM575.24 448.69C576.83 449.089 578.448 449.37 580.08 449.53C584.66 449.99 589.286 449.572 593.71 448.3C601.398 446.038 608.094 441.241 612.71 434.69C615.837 430.166 617.89 424.988 618.71 419.55C619.798 412.033 618.448 404.365 614.86 397.67C612.35 392.49 609.57 387.43 607.24 382.16V382.08H607.08C601.31 381.26 595.55 380.35 589.78 379.49C583.958 378.51 577.984 379.005 572.403 380.931C566.822 382.856 561.813 386.15 557.834 390.511C553.855 394.872 551.033 400.161 549.626 405.894C548.219 411.628 548.272 417.622 549.78 423.33C550.19 425.05 550.93 426.67 551.38 428.38C553.48 433.225 556.634 437.541 560.613 441.013C564.592 444.485 569.295 447.026 574.38 448.45L575.24 448.69ZM790.35 427.87C788.945 421.328 786.219 415.141 782.34 409.689C778.461 404.236 773.51 399.633 767.79 396.16C761.792 392.618 755.125 390.357 748.21 389.52C704.21 382.92 660.31 376.21 616.34 369.66C619.58 376.97 623.44 384 626.93 391.2C631.915 400.498 633.79 411.149 632.28 421.59C631.128 429.135 628.269 436.318 623.92 442.59C617.517 451.683 608.227 458.344 597.56 461.49C591.416 463.258 584.991 463.838 578.63 463.2C586.77 464.08 594.83 465.57 602.94 466.71L638.28 472.05C625.48 484.71 612.62 497.31 599.83 509.99C602.3 509.52 604.17 507.71 606.44 506.75C613.174 503.412 620.586 501.668 628.103 501.653C635.619 501.638 643.038 503.353 649.785 506.664C656.533 509.975 662.429 514.794 667.016 520.748C671.603 526.702 674.759 533.631 676.24 541C677.91 549.87 679.01 558.86 680.84 567.71C711.04 537.963 741.23 508.207 771.41 478.44C775.47 474.38 779.82 470.52 783.04 465.71C786.791 460.235 789.376 454.047 790.633 447.53C791.891 441.013 791.794 434.308 790.35 427.83V427.87ZM421.08 526.7C420.522 526.273 419.988 525.816 419.48 525.33C414.926 520.917 409.267 517.814 403.098 516.346C396.929 514.878 390.479 515.101 384.426 516.99C378.373 518.88 372.941 522.366 368.702 527.082C364.464 531.799 361.575 537.57 360.34 543.79C359.41 549.01 358.6 554.25 357.72 559.47C357.46 560.595 357.319 561.745 357.3 562.9C359.65 565.23 362.01 567.54 364.36 569.9C368.19 573.52 371.65 577.62 376.14 580.47C382.757 584.735 390.609 586.666 398.45 585.956C406.29 585.245 413.667 581.935 419.41 576.55C423.639 572.538 426.859 567.583 428.81 562.09C428.93 561.59 429.06 561.09 429.18 560.58C430.804 554.927 430.993 548.959 429.73 543.215C428.468 537.47 425.794 532.131 421.95 527.68C421.66 527.32 421.37 527 421.08 526.7ZM610.2 580.8C615.156 583.836 620.783 585.607 626.585 585.955C632.387 586.304 638.186 585.22 643.47 582.8C647.921 580.696 651.925 577.752 655.26 574.13L666.53 563L666.6 562.93C665.29 556.56 664.5 550.09 663.29 543.7C662.225 538.389 659.953 533.395 656.648 529.103C653.344 524.811 649.097 521.337 644.236 518.949C639.374 516.562 634.028 515.324 628.612 515.333C623.196 515.342 617.854 516.596 613 519C611.37 519.69 610 521 608.24 521.34C605.43 524.1 602.35 526.65 600.09 529.91C597.219 533.85 595.196 538.341 594.147 543.102C593.098 547.862 593.048 552.789 593.997 557.57C594.947 562.351 596.877 566.883 599.666 570.882C602.455 574.88 606.041 578.257 610.2 580.8ZM680.74 567.8L665.09 583.23C660.455 588.245 654.897 592.319 648.72 595.23C641.379 598.59 633.325 600.094 625.267 599.607C617.208 599.12 609.393 596.659 602.51 592.44C596.953 588.986 592.132 584.47 588.323 579.151C584.514 573.831 581.791 567.813 580.31 561.44C583.563 581.04 586.81 600.643 590.05 620.25C571.923 610.87 553.803 601.477 535.69 592.07C537.37 593.52 539.36 594.53 541.1 595.9C546.411 599.919 550.849 604.978 554.142 610.768C557.435 616.558 559.514 622.958 560.253 629.577C560.992 636.197 560.376 642.898 558.441 649.272C556.506 655.645 553.294 661.558 549 666.65C544.302 672.143 538.49 676.574 531.95 679.65C525.26 683.15 518.52 686.54 511.87 690.11C552.043 710.963 592.227 731.8 632.42 752.62C638.825 755.902 645.881 757.713 653.074 757.92C660.268 758.128 667.417 756.727 674 753.82C684.298 749.251 692.754 741.341 698 731.37C702.855 722.036 704.54 711.376 702.8 701C695.453 656.62 688.1 612.223 680.74 567.81V567.8ZM479.25 671.48C473.885 666.652 469.653 660.698 466.856 654.044C464.06 647.39 462.767 640.2 463.072 632.989C463.377 625.778 465.271 618.723 468.619 612.328C471.967 605.934 476.687 600.359 482.44 596C484.19 594.6 486.23 593.6 487.91 592.12C469.74 601.47 451.64 610.92 433.49 620.31C436.43 602.37 439.49 584.45 442.36 566.5C439.653 574.128 435.182 581.009 429.31 586.58C421.336 594.063 411.088 598.664 400.197 599.65C389.306 600.635 378.398 597.95 369.21 592.02C362.97 588.07 358.21 582.37 352.85 577.35C349.59 574.12 346.31 570.91 343.05 567.68C343.078 566.074 343.276 564.475 343.64 562.91C344.87 555.65 345.99 548.38 347.28 541.13C349 532.495 353.016 524.483 358.904 517.936C364.792 511.389 372.335 506.55 380.74 503.927C389.146 501.305 398.102 500.995 406.669 503.032C415.235 505.068 423.094 509.375 429.42 515.5C430.124 516.177 430.866 516.815 431.64 517.41C416.43 502.26 401.08 487.25 385.81 472.17C389.7 471.3 393.68 470.93 397.61 470.26L438.37 464.11C437.683 463.598 436.857 463.305 436 463.27C426.212 462.465 416.9 458.701 409.3 452.48C400.427 445.289 394.351 435.219 392.127 424.016C389.902 412.814 391.669 401.186 397.12 391.15C400.61 383.96 404.48 376.95 407.7 369.64C363.267 376.307 318.837 383.003 274.41 389.73C264.707 391.1 255.644 395.37 248.41 401.98C243.337 406.693 239.3 412.41 236.558 418.768C233.815 425.126 232.427 431.986 232.48 438.91C232.562 449.166 235.926 459.126 242.08 467.33C245.08 471.33 248.82 474.72 252.35 478.26C282.503 508.007 312.667 537.747 342.84 567.48C335.453 612.033 328.077 656.593 320.71 701.16C318.871 712.168 320.895 723.474 326.44 733.16C330.376 739.948 335.858 745.712 342.44 749.985C349.021 754.257 356.518 756.918 364.32 757.75C373.838 758.669 383.416 756.767 391.86 752.28C431.787 731.567 471.717 710.853 511.65 690.14C507.59 687.83 503.37 685.81 499.25 683.62C492.39 679.95 485 676.87 479.25 671.48ZM538.56 658.66C541.649 654.995 543.961 650.74 545.353 646.153C546.745 641.566 547.188 636.744 546.657 631.98C546.126 627.216 544.63 622.61 542.262 618.443C539.893 614.276 536.701 610.634 532.88 607.74C531.63 606.74 530.2 606.02 528.99 604.98C523.717 602.098 517.804 600.587 511.795 600.587C505.786 600.587 499.873 602.098 494.6 604.98C493.39 606.04 491.92 606.76 490.66 607.77C486.518 610.912 483.122 614.929 480.712 619.535C478.303 624.141 476.94 629.223 476.721 634.416C476.502 639.61 477.433 644.788 479.447 649.58C481.46 654.373 484.507 658.661 488.37 662.14C492.53 666.03 497.83 668.24 502.78 670.89C505.78 672.47 508.78 673.89 511.71 675.58H511.83C516.61 673.01 521.47 670.58 526.29 668.05C530.999 665.825 535.182 662.625 538.56 658.66Z" fill="white"/>
</g>
<defs>
<clipPath id="clip0_2_2793">
<rect width="1024" height="1024" fill="white"/>
</clipPath>
</defs>
</svg>
